packages/tokens/icons/critical/size32Px.svg

<svg viewBox="0 0 32 32" fill="none" xmlns="http://www.w3.org/2000/svg" width="1em" height="1em"><path d="M21.628 2.5C22.0519 2.5 22.456 2.67934 22.7404 2.99367L29.1123 10.0368C29.3618 10.3126 29.5 10.6713 29.5 11.0432L29.5 20.5047C29.5 20.862 29.3724 21.2076 29.1403 21.4793L22.7343 28.9746C22.4493 29.308 22.0327 29.5 21.594 29.5L10.5459 29.5C10.1125 29.5 9.70027 29.3125 9.41541 28.9858L2.86947 21.4792C2.63125 21.2061 2.5 20.8559 2.5 20.4934L2.5 11.0547C2.5 10.6776 2.64203 10.3144 2.8978 10.0373L9.40982 2.98258C9.69378 2.67496 10.0934 2.5 10.512 2.5L21.628 2.5Z" stroke="currentColor" stroke-linecap="round"/><path d="M16 20.5L16 6.5" stroke="currentColor" stroke-linecap="round"/><path d="M16 24.5L16 25.5" stroke="currentColor" stroke-linecap="round" stroke-linejoin="round"/></svg>

<svg xmlns="http://www.w3.org/2000/svg" fill="none" viewBox="0 0 32 32" width="1em" height="1em"><path stroke="currentColor" stroke-linecap="round" d="M21.628 2.5a1.5 1.5 0 0 1 1.112.494l6.372 7.043a1.5 1.5 0 0 1 .388 1.006v9.462a1.5 1.5 0 0 1-.36.974l-6.406 7.496a1.5 1.5 0 0 1-1.14.525H10.546a1.5 1.5 0 0 1-1.13-.514l-6.547-7.507a1.5 1.5 0 0 1-.369-.986v-9.438c0-.377.142-.74.398-1.018L9.41 2.983a1.5 1.5 0 0 1 1.102-.483h11.116ZM16 20.5v-14"/><path stroke="currentColor" stroke-linecap="round" stroke-linejoin="round" d="M16 24.5v1"/></svg>
